X:2
T:Balleydesmond Polka #2
R:polka
M:2/4
L:1/8
K:G
AB |: "Am" c2  "G" B2 | "Am" A2  "G" G>A | "G"  Bd      ed | g2        g>f |
      "Am" ea      ge | "G"  dB    GA/B/ | "F"  ce  "G" dB |1 "Am" A2   AB :|2 A2 Ad ||
      "Am" ea   ag/e/ | "G"  dg       gd | "Am" ea      ab | "G"   g2   ed |
      "Am" ea      ge | "G"  dB    GA/B/ | "F"  ce  "G" dB |1 "Am" A2   Ad :|2 A2 AB |]
